svgs/sharp-light/jar-wheat.svg

<svg xmlns="http://www.w3.org/2000/svg" viewBox="0 0 320 512"><!--! Font Awesome Pro 6.6.0 by @fontawesome - https://fontawesome.com License - https://fontawesome.com/license (Commercial License) Copyright 2024 Fonticons, Inc. --><path d="M48 0l0 32 224 0 0-32L48 0zM288 96l0 384L32 480 32 96l256 0zM32 64L0 64 0 96 0 480l0 32 32 0 256 0 32 0 0-32 0-384 0-32-32 0L32 64zM144 448l0 16 32 0 0-16 0-16 8 0c38.7 0 71-27.5 78.4-64c1-5.2 1.6-10.5 1.6-16l0-16-32 0-8 0c-26.2 0-49.4 12.6-64 32c-14.6-19.4-37.8-32-64-32l-8 0-32 0 0 16c0 5.5 .6 10.8 1.6 16c7.4 36.5 39.7 64 78.4 64l8 0 0 16zm34.7-48c6.6-18.6 24.4-32 45.3-32l5.3 0c-6.6 18.6-24.4 32-45.3 32l-5.3 0zM136 400c-20.9 0-38.7-13.4-45.3-32l5.3 0c20.9 0 38.7 13.4 45.3 32l-5.3 0zm42.7-208c6.6-18.6 24.4-32 45.3-32l5.3 0c-6.6 18.6-24.4 32-45.3 32l-5.3 0zM160 160c-14.6-19.4-37.8-32-64-32l-8 0-32 0 0 16c0 5.5 .6 10.8 1.6 16c7.4 36.5 39.7 64 78.4 64l8 0 32 0 8 0c38.7 0 71-27.5 78.4-64c1-5.2 1.6-10.5 1.6-16l0-16-32 0-8 0c-26.2 0-49.4 12.6-64 32zm-24 32c-20.9 0-38.7-13.4-45.3-32l5.3 0c20.9 0 38.7 13.4 45.3 32l-5.3 0zm42.7 104c6.6-18.6 24.4-32 45.3-32l5.3 0c-6.6 18.6-24.4 32-45.3 32l-5.3 0zM160 264c-14.6-19.4-37.8-32-64-32l-8 0-32 0 0 16c0 5.5 .6 10.8 1.6 16c7.4 36.5 39.7 64 78.4 64l8 0 32 0 8 0c38.7 0 71-27.5 78.4-64c1-5.2 1.6-10.5 1.6-16l0-16-32 0-8 0c-26.2 0-49.4 12.6-64 32zm-24 32c-20.9 0-38.7-13.4-45.3-32l5.3 0c20.9 0 38.7 13.4 45.3 32l-5.3 0z"/></svg>

<svg xmlns="http://www.w3.org/2000/svg" viewBox="0 0 320 512"><!--! Font Awesome Pro 6.4.0 by @fontawesome - https://fontawesome.com License - https://fontawesome.com/license (Commercial License) Copyright 2023 Fonticons, Inc. --><path d="M48 0V32H272V0H48zM288 96V480H32V96H288zM32 64H0V96 480v32H32 288h32V480 96 64H288 32zM144 448v16h32V448 432h8c38.7 0 71-27.5 78.4-64c1-5.2 1.6-10.5 1.6-16V336H232h-8c-26.2 0-49.4 12.6-64 32c-14.6-19.4-37.8-32-64-32H88 56v16c0 5.5 .6 10.8 1.6 16c7.4 36.5 39.7 64 78.4 64h8v16zm34.7-48c6.6-18.6 24.4-32 45.3-32h5.3c-6.6 18.6-24.4 32-45.3 32h-5.3zM136 400c-20.9 0-38.7-13.4-45.3-32H96c20.9 0 38.7 13.4 45.3 32H136zm42.7-208c6.6-18.6 24.4-32 45.3-32h5.3c-6.6 18.6-24.4 32-45.3 32h-5.3zM160 160c-14.6-19.4-37.8-32-64-32H88 56v16c0 5.5 .6 10.8 1.6 16c7.4 36.5 39.7 64 78.4 64h8 32 8c38.7 0 71-27.5 78.4-64c1-5.2 1.6-10.5 1.6-16V128H232h-8c-26.2 0-49.4 12.6-64 32zm-24 32c-20.9 0-38.7-13.4-45.3-32H96c20.9 0 38.7 13.4 45.3 32H136zm42.7 104c6.6-18.6 24.4-32 45.3-32h5.3c-6.6 18.6-24.4 32-45.3 32h-5.3zM160 264c-14.6-19.4-37.8-32-64-32H88 56v16c0 5.5 .6 10.8 1.6 16c7.4 36.5 39.7 64 78.4 64h8 32 8c38.7 0 71-27.5 78.4-64c1-5.2 1.6-10.5 1.6-16V232H232h-8c-26.2 0-49.4 12.6-64 32zm-24 32c-20.9 0-38.7-13.4-45.3-32H96c20.9 0 38.7 13.4 45.3 32H136z"/></svg>
